src/assets/img/icons/duotone-icons/Devices/Phone.svg

<?xml version="1.0" encoding="UTF-8"?>
<svg width="24px" height="24px" viewBox="0 0 24 24" version="1.1" xmlns="http://www.w3.org/2000/svg" xmlns:xlink="http://www.w3.org/1999/xlink">
    <!-- Generator: Sketch 52.2 (67145) - http://www.bohemiancoding.com/sketch -->
    <title>Stockholm-icons / Devices / Phone</title>
    <desc>Created with Sketch.</desc>
    <g id="Stockholm-icons-/-Devices-/-Phone" stroke="none" stroke-width="1" fill="none" fill-rule="evenodd">
        <rect id="bound" x="0" y="0" width="24" height="24"></rect>
        <path d="M7.13888889,4 L7.13888889,19 L16.8611111,19 L16.8611111,4 L7.13888889,4 Z M7.83333333,1 L16.1666667,1 C17.5729473,1 18.25,1.98121694 18.25,3.5 L18.25,20.5 C18.25,22.0187831 17.5729473,23 16.1666667,23 L7.83333333,23 C6.42705272,23 5.75,22.0187831 5.75,20.5 L5.75,3.5 C5.75,1.98121694 6.42705272,1 7.83333333,1 Z" id="Combined-Shape" fill="#335EEA"></path>
        <polygon id="Combined-Shape" fill="#335EEA" opacity="0.3" points="7 4 7 19 17 19 17 4"></polygon>
        <circle id="Oval" fill="#335EEA" cx="12" cy="21" r="1"></circle>
    </g>
</svg>

<svg width="24" height="24" viewBox="0 0 24 24" xmlns="http://www.w3.org/2000/svg"><g fill="none" fill-rule="evenodd"><path d="M0 0h24v24H0z"/><path d="M7.139 4v15h9.722V4H7.14zm.694-3h8.334c1.406 0 2.083.981 2.083 2.5v17c0 1.519-.677 2.5-2.083 2.5H7.833c-1.406 0-2.083-.981-2.083-2.5v-17c0-1.519.677-2.5 2.083-2.5z" fill="#335EEA"/><path fill="#335EEA" opacity=".3" d="M7 4v15h10V4z"/><circle fill="#335EEA" cx="12" cy="21" r="1"/></g></svg>
